X:14817
T:Salt Fish \& Dumplins
M:C
K:G
B>A|\
G3A (B3c)| d3g dBAG| \
c3e dBAG| FGAB A3B|\
cBcd efge| dBAG {G}F2ED|
GBAc BgAc| B2G2 G2::\
ge|\
dBGB d3e| dBGB d2cB| \
cBcd efga| f2d2 d2cB|
cBcd efge| dBAG "tr"{G}F2ED| GBAc BdAc| B2G2 G2:|
